X: 43317
T: Woods Of Old Limerick, The
R: jig
M: 6/8
K: Dmajor
|:F2D EFG|Add cAG|F2 D EFG|EAA EFG|
F2D EFG|Add cAG|F2 D EFG|1 EDD D2 E:|2 EDD Dde||
|:fdd ded|cAG Ade|fdd def|gec d2 e|
f3 ecA|d3 cAG|F2 D EFG|1 EDD Dde:|2 EDD D3||

